modules/hawcons-stroke/icons/icon-10-cloud-lightning.svg

<?xml version="1.0" encoding="UTF-8" standalone="no"?>
<svg width="32px" height="32px" viewBox="0 0 32 32" version="1.1" xmlns="http://www.w3.org/2000/svg" xmlns:xlink="http://www.w3.org/1999/xlink" xmlns:sketch="http://www.bohemiancoding.com/sketch/ns">
    <!-- Generator: Sketch 3.0.3 (7891) - http://www.bohemiancoding.com/sketch -->
    <title>icon 10 cloud lightning</title>
    <desc>Created with Sketch.</desc>
    <defs></defs>
    <g id="Page-1" stroke="none" stroke-width="1" fill="none" fill-rule="evenodd" sketch:type="MSPage">
        <g id="icon-10-cloud-lightning" sketch:type="MSArtboardGroup" fill="#929292">
            <path d="M17.0666911,21 L19.5999756,21 L13.5,27.1000061 L14.9786564,23 L12.4000244,23 L14.6999512,17 L18.5999756,17 L17.0666911,21 L17.0666911,21 Z M19,23 L24.9971835,23 C27.207878,23 29,21.2046438 29,19 C29,17.1225574 27.70144,15.5472159 25.9581226,15.1164746 L25.9581226,15.1164746 C25.9857342,14.9149284 26,14.7091302 26,14.5 C26,12.0147185 23.9852815,10 21.5,10 C20.2744589,10 19.1633432,10.489913 18.3518132,11.2845787 C17.3608691,9.33540592 15.336385,8 13,8 C9.68629134,8 7,10.6862913 7,14 C7,14.3764904 7.03467626,14.7448817 7.10100919,15.1021544 L7.10100919,15.1021544 C5.32460991,15.5117359 4,17.1046097 4,19 C4,21.209139 5.79793835,23 8.00281647,23 L11.375,23 L11.375,23 L14,16 L20,16 L18.5,20 L22,20 L19,23 L19,23 Z M18,24 L25.0005601,24 C27.7616745,24 30,21.7558048 30,19 C30,16.9483386 28.7676457,15.1852931 26.9993494,14.4145295 L26.9993494,14.4145295 C26.9536744,11.4163763 24.5090248,9 21.5,9 C20.441357,9 19.4525719,9.29909701 18.6135384,9.81739735 C17.3372745,8.10728055 15.2979469,7 13,7 C9.13400656,7 6,10.1340066 6,14 C6,14.1381509 6.00400207,14.275367 6.01189661,14.4115388 L6.01189661,14.4115388 C4.23965876,15.1816085 3,16.9491311 3,19 C3,21.7614237 5.23249418,24 7.99943992,24 L13.5454545,24 L11,31 L18,24 L18,24 L18,24 Z" id="cloud-lightning" sketch:type="MSShapeGroup"></path>
        </g>
    </g>
</svg>

<svg width="32" height="32" viewBox="0 0 32 32" xmlns="http://www.w3.org/2000/svg"><path d="M17.067 21H19.6l-6.1 6.1 1.479-4.1H12.4l2.3-6h3.9l-1.533 4zM19 23h5.997A4.004 4.004 0 0 0 29 19a4.006 4.006 0 0 0-3.042-3.884 4.5 4.5 0 0 0-7.606-3.832 6 6 0 0 0-11.25 3.818H7.1A4.006 4.006 0 0 0 4 19c0 2.21 1.798 4 4.003 4h3.372L14 16h6l-1.5 4H22l-3 3zm-1 1h7c2.762 0 5-2.244 5-5a4.998 4.998 0 0 0-3-4.585 5.5 5.5 0 0 0-8.386-4.598 7 7 0 0 0-12.602 4.594A5.006 5.006 0 0 0 3 19c0 2.761 2.232 5 5 5h5.545L11 31l7-7z" fill="#929292" fill-rule="evenodd"/></svg>
